X:1
T:Gone Home to Rest
T:Gone Home to Rest
T:Barney E. Warren, pub.1911
T:Daniel S. Warner
T:PUBLIC DOMAIN
T:PUBLIC DOMAIN
C:Barney E. Warren, pub.1911
Z:Daniel S. Warner
Z:PUBLIC DOMAIN
%%score ( 1 2 ) ( 3 4 )
L:1/8
Q:1/4=90
M:3/4
K:Bb
V:1 treble nm="Treble"
V:2 treble 
V:3 bass nm="Bass"
V:4 bass 
V:1
 [DF]2 | [DF]4 [EG]2 | [DF]4 [FB]2 | [EB]4 [EG]2 | [DF]4 [EG]2 | [DF]4 [Fd]2 | [Ec]4 [EA]2 | %7
w: 1.~A-|sleep in|Je- sus,|oh, how|sweet The|scene of|clos- ing|
w: 2.~With|grace di-|vine and|per- fect|love Thy|pil- grim|days were|
w: 3.~Thy|prayers and|tears have|gone be-|fore, Thy|works shall|fol- low|
w: 4.~May|we who|knew and|loved thee|here With|an- gels|bright as-|
 [DB]4 [DF]2 | [DF]4 [DB]2 | [Fd]4 [^Fc]2 | [GB]4 [EG]2 | [DB]4 [DF]2 | [DF]4 [DF]2 | [EG]4 [DF]2 | %14
w: day, Where|ho- ly|an- gels|come to|greet, And|bear the|soul a-|
w: blest, But|sweet- er|far thy|joys a-|bove And|more se-|rene thy|
w: on, And|gath- er|gems for-|ev- er-|more, To|glit- ter|in thy|
w: cend, Thy|bless- ed|heav’n- ly|rest to|share, When|mor- tal|life shall|
 [DF]4 ||[M:4/4]"^Refrain" z3/2 F/ G3/2 A/ | B4 B3/2 G/ F3/2 D/ | F4 F2 [DB]2 | %18
w: way!|The an- gels|bore _ our loved one|home _ In|
w: rest.||||
w: crown.||||
w: end.||||
 c4 c3/2 e/ [Fd]3/2 [Ec]/ | B4 B3/2 | F/ D3/2 F/ | G4 G3/2 F/ B3/2 c/ | d4 d2 [FB]2 | %23
w: shin- _ ing gar- ments|fair; _|And some bright|day _ we hope to|come _ And|
w: |||||
w: |||||
w: |||||
 [Ec]3 [DB] [EA]2 [Ec]2 | B4 B2 |] %25
w: join thee o- ver|there. _|
w: ||
w: ||
w: ||
V:2
 x2 | x6 | x6 | x6 | x6 | x6 | x6 | x6 | x6 | x6 | x6 | x6 | x6 | x6 | x4 ||[M:4/4] z3/2 z/ z2 | %16
 z3/2 D/ E3/2 E/ D3/2 z/ z2 | z3/2 D/ D3/2 D/ D2 z2 | E3/2 E/ E3/2 E/ (E3/2 G/) z2 | %19
 D3/2 D/ E3/2 E/ D3/2 | z/ z2 | z3/2 E/ E3/2 E/ E3/2 z/ z2 | z3/2 F/ F3/2 F/ F2 z2 | x8 | %24
 D3/2 D/ E3/2 E/ D2 |] %25
V:3
 [B,,B,]2 | [B,,B,]4 [B,,B,]2 | [B,,B,]4 [D,B,]2 | [E,G,]4 [E,B,]2 | [B,,B,]4 [B,,B,]2 | %5
w: |||||
 [B,,B,]4 [B,,B,]2 | [F,A,]4 F,2 | [B,,F,]4 [B,,B,]2 | [B,,B,]4 [B,,B,]2 | [B,,B,]4 [D,B,]2 | %10
w: |||||
 [E,B,]4 [E,B,]2 | [B,,B,]4 [B,,B,]2 | [B,,B,]4 [B,,B,]2 | [E,B,]4 [B,,B,]2 | [B,,B,]4 || %15
w: |||||
[M:4/4] z4 | z3/2 [B,,F,]/ [B,,G,]3/2 [B,,G,]/ [B,,F,]3/2 z/ z2 | %17
w: |the an- gels bore|
 z3/2 [B,,B,]/ [B,,B,]3/2 [B,,B,]/ [B,,B,]2 z2 | [F,A,]3/2 [F,A,]/ [F,A,]3/2 [F,A,]/ [F,A,]2 z2 | %19
w: our loved one home|shin- ing gar- ments fair,|
 [B,,F,]3/2 [B,,F,]/ [B,,G,]3/2 [B,,G,]/ [B,,F,]3/2 | z/ z2 | %21
w: shin- ing gar- ments fair;||
 z3/2 [E,B,]/ [E,B,]3/2 [E,B,]/ [E,B,]3/2 z/ z2 | %22
w: And some bright day|
 z3/2 [B,,B,]/ [B,,B,]3/2 [B,,B,]/ [B,,B,]2 [D,B,]2 | [F,A,]3 [F,B,] [F,C]2 [F,,F,A,]2 | %24
w: we hope to come *||
 B,3/2 F,/ G,3/2 G,/ F,2 |] %25
w: * thy * to share.|
V:4
 x2 | x6 | x6 | x6 | x6 | x6 | z4 F,2 | x6 | x6 | x6 | x6 | x6 | x6 | x6 | x4 ||[M:4/4] x4 | x8 | %17
 x8 | x8 | x11/2 | x5/2 | x8 | x8 | x8 | B,,4 B,,2 |] %25

